X: 326
T:Gan ainm jig 30/11/00
T:kitty come over?
R:jig
N:Some similarities to hn-jig-89, &amp; Kitty, from O'Neill's Dance Music ..
(1907) no. 55
Z:Lesl
M:6/8
K:G
GGA|:B2A BGD|GBd ~g3|ded BGA|BAG AGA|
B2A BGD|GBd g2g|ded BGA|1 BGG G2A|2 BGG G2B||
|:d2g gfg|e2a aga|bge dBG|BAG AB^c|
d2g gfg|e2a aga|bge dBA|1 BGF G2B:|2 BGG G3||
% Output from ABC2Win  Version 2.1 k preview on 01/05/2001
<end>
<start>
